X:6908
T:The Highlander Kissed His Granny
O:england
S:Tommy Peoples, Donegal (fiddle)
D:Demo tape - 197?
R:Reel
N:As played
M:4/4
K:G
cg{a}ge gc{a}ge | cg{a}ge dBGB | cg{a}ge gc{a}ge | af{a}ge dBGB :|
ce(3.A.A.A {B}ABcB | ceAe dBGB | ce(3.e.e.A ABcd | eage dBGB :||


